(
Server.local.boot;
"lib/instruments.scd".load;
)

(
var maj = Chromatic(0, [2, 2]);
var min = Chromatic(0, [1, 3]);
TempoClock.default.tempo = 120/60;
p = Pbind(
    \instrument, \bass,
    \freq, Pseq([maj.freqs, min.freqs], inf),
    \dur, 1,
    \amp, 0.5
).play;
)

(
var maj = Chromatic(0, [4, 3]);
p = Pbind(
    \instrument, \bass,
    \freq, Pseq(maj.freqs, inf),
    \dur, 1,
    \amp, 0.5
).play
)

p.stop;

(
TempoClock.default.tempo = 132/60;
p = Pxrand([
    Pbind(            // repeated notes
        \instrument, \bass,
        \midinote, 36,
        \dur, Pseq([0.75, 0.25, 0.25, 0.25, 0.5], 1),
        \legato, Pseq([0.9, 0.3, 0.3, 0.3, 0.3], 1),
        \amp, 0.5, \detune, 1.005
    ),
    Pmono(\bass,        // octave jump
        \midinote, Pseq([36, 48, 36], 1),
        \dur, Pseq([0.25, 0.25, 0.5], 1),
        \amp, 0.5, \detune, 1.005
    ),
    Pmono(\bass,        // tritone jump
        \midinote, Pseq([36, 42, 41, 33], 1),
        \dur, Pseq([0.25, 0.25, 0.25, 0.75], 1),
        \amp, 0.5, \detune, 1.005
    ),
    Pmono(\bass,        // diminished triad
        \midinote, Pseq([36, 39, 36, 42], 1),
        \dur, Pseq([0.25, 0.5, 0.25, 0.5], 1),
        \amp, 0.5, \detune, 1.005
    )
], inf).play(quant: 1);
)

(
TempoClock.default.tempo = 60/60;
p = Pxrand([
    Pbind(            // repeated notes
        \instrument, \bass,
        \midinote, 36,
        \dur, Pseq([0.75, 0.25, 0.25, 0.25, 0.5], 1),
        \legato, Pseq([0.9, 0.3, 0.3, 0.3, 0.3], 1),
        \amp, 0.5, \detune, 1.005
    ),
    Pmono(\bass,        // octave jump
        \midinote, Pseq([36, 48, 36], 1),
        \dur, Pseq([0.25, 0.25, 0.5], 1),
        \amp, 0.5, \detune, 1.005
    ),
], inf).play(quant: 1);
)

(
TempoClock.default.tempo = 60/60;
p = Pbind(            // repeated notes
        \instrument, \bass,
        \midinote, 36,
        \dur, Pseq([0.75, 0.25, 0.25, 0.25, 0.5], 1),
        \legato, Pseq([0.9, 0.3, 0.3, 0.3, 0.3], 1),
        \amp, 0.5,
        \detune, 1.005
    ).play(quant: 1);
)

p.stop;
